X:1
T:He Is All in All to Me
T:He Is All in All to Me
T:William James Kirkpatrick
T:Frances Jane (Fanny) Crosby, 1896
T:Public Domain Courtesy of the Cyber Hymnal™
C:William James Kirkpatrick
Z:Public Domain
Z:Courtesy of the Cyber Hymnal™
%%score ( 1 2 ) ( 3 4 )
L:1/8
Q:1/4=115
M:4/4
K:C
V:1 treble 
V:2 treble 
V:3 bass 
V:4 bass 
V:1
 [CE]>[B,D] | C3 C [Ec]3 [Ec] | [GB]2 [FA]4 [FA]2 | [EG]3 [CE] [CE]2 ([G,D][A,C]) | %4
w: 1.~There is|con- stant joy a-|bid- ing In|Christ my Lord and *|
w: 2.~When my|path is veilied in|sha- dows, And|clouds a- bove me *|
w: 3.~I can|see His bow of|prom- ise Through|tears and tri- als *|
w: 4.~I shall|yet be- hold and|praise Him, And|dwell in per- fect *|
 [B,D]6 [B,E]>[B,D] | C3 C [Ec]3 [Ec] | [GB]2 [FA]4 [^DA]2 | [EG]3 [CE] [B,E]2 [B,D]2 | C6 |: %9
w: king; Of His|love that pass- eth|know- ledge My|heart and tongue shall|sing.|
w: roll, I can|smile a- mid the|tem- pest, His|glo- ry fills my|soul.|
w: deep; I can|hear His voice like|mu- sic, That|lulls my care to|sleep.|
w: peace In the|gold- en land of|beau- ty, Where|cloud and wave shall|cease.|
"^Refrain" GG | [Ec]3 [Ec] [Gd]3 [Gd] | [Ge]6 x5 :| [^Ge]>[Gd] | [Ac]3 [^GB] (A2 [Ac])[FA] | %14
w: |||||
w: He is|all in all to|me,|Hal- le-|lu- jah, O * my|
w: And my|song of songs shall|be,|||
w: |||||
 [EG]2 [CE]4 [CE][B,D] | C [Ec]3 [CE]2 [B,D]2 | C6 |] %17
w: |||
w: Sav- ior, I am|trust- ing on- ly|Thee.|
w: |||
w: |||
V:2
 x2 | C3 C x4 | x8 | x8 | x8 | C3 C x4 | x8 | x8 | C6 |: GG | x8 | x11 :| x2 | x4 A2 x2 | x8 | %15
 C x7 | C6 |] %17
V:3
 [C,G,]>[C,F,] | [C,E,]3 [C,E,] [C,G,]3 [C,C] | [F,C]2 [F,C]4 [F,C]2 | %3
 [C,C]3 [C,G,] [C,G,]2 ([B,,G,][A,,^F,]) | [G,,G,]6 [G,,G,]>[G,,F,] | %5
 [C,E,]3 [C,E,] [C,G,]3 [C,C] | [F,C]2 [F,C]4 [^F,C]2 | [G,C]3 G, [G,,G,]2 [G,,F,]2 | [C,E,]6 |: %9
 G,G, | [C,G,]3 [C,G,] [G,B,]3 [G,B,] | z x10 :| [E,B,]>[E,B,] | [F,A,]3 [F,D] [F,C]3 [F,C] | %14
 [C,C]2 [C,G,]4 G,[F,G,] | [E,G,] [C,G,]3 G,2 [G,,F,]2 | [C,E,]6 |] %17
V:4
 x2 | x8 | x8 | x8 | x8 | x8 | x8 | x3 G, x4 | x6 |: G,G, | x8 | [C,C]6 C,E,G, C2 :| x2 | x8 | %14
 x6 G, x | x4 G,2 x2 | x6 |] %17

